!!!!SEGMENT: pl-wnifc--13846--131_anonim--piesni-polskie-i-ruskie-ludu-galicyjskiego-131-wze-try-dny-i-try-nedily.krn
!!!kernsource:
!!!cenid: 18xx:3353
!!!COM: Anonim
!!!COM-rismID: pe30004985
!!!CDT:
!!!CNT:
!!!GTL: Pieśni polskie i ruskie ludu galicyjskiego
!!!OTL: 131. Wże try dny i try nediły
!!!OMV: 131
!!!PDT: 1833
!!!AGN:
!!!SMS-siglum: PL-Wnifc
!!!SMS-shelfmark: 13846
!!!SMS-shelfwork: 001-131 G
!!!SMS-variant:
!!!SMS-altvar:
!!!NIFC-rismSourceID: 1001036701
!!!NIFC-rismChildID: 1001039638
!!!NIFC-islandoraID: nifc:210326
!!!URL-pdf-islandora: https://repozytorium.nifc.pl/islandora/object/nifc%3A210326/datastream/PDF/view
!!!URL-scan:
!!!ONB-nifc:
!!!OMD: Andante sostenuto
!!!AIN: 1 piano 1 vox
!!!key: a
**kern	**kern	**dynam	**kern	**text
*part2	*part2	*part2	*part1	*part1
*staff3	*staff2	*	*staff1	*staff1
*I"Fortepian	*I"Fortepian	*	*I"Głos	*
*Ipiano	*Ipiano	*	*Ivox	*
*ICklav	*ICklav	*	*ICvox	*
*IGacmp	*IGacmp	*	*IGsolo	*
*clefF4	*clefG2	*	*clefG2	*
*k[]	*k[]	*	*k[]	*
*a:	*a:	*	*a:	*
*M2/4	*M2/4	*	*M2/4	*
=1	=1	=1	=1	=1
!	!	!	!LO:TX:a:t=E.222.	!
!	!	!	!LO:TX:a:t=*	!
16AA|>/LL	(8.cc\^<L 8.ee\	.	(8.ee\L	Wże
16A|>\ 16c\	.	.	.	.
16e|>\JJ	.	.	.	.
16r	16dd\Jk) 16ff\	.	16ff\Jk)	.
!LO:TX:t=P:problem=mixed beam	!	!	!	!
16EE|>/LL	8.b\^<L 8.dd\	.	8.dd\	try
16G#X|>\ 16B\	.	.	.	.
16B|>\JJ 16d\	.	.	.	.
16r	16b\Jk 16ee\	.	16ee\	dny
=2	=2	=2	=2	=2
8E\L 8A\ 8c\	(16cc\LL	.	(16cc\LL	i
.	16a\JJ)	.	16a\JJ)	.
8E\J 8A\ 8c\	16.ee\^<LL	.	16.ee\	try
.	32cc\JJk	.	32cc\	ne-
4E\^< 4G#X\ 4B\	(16b\LL	.	(16b\LL	-di-
.	16g#X/JJ)	.	16g#X/JJ)	.
.	8e/	.	8e/	-ły,
!!LO:LB:g=original
=3	=3	=3	=3	=3
!LO:TX:t=P:problem=mixed beam	!	!	!	!
16AA|>/LL	8cc\L 8ee\	.	8ee\	jak
16A|>\ 16c\	.	.	.	.
16c|>\JJ 16e\	(16cc\L 16ee\	.	16ee\	mo-
16r	16dd\JJ) 16ff\	.	16ff\	-ho
!LO:TX:t=P:problem=mixed beam	!	!	!	!
16EE|>/LL	8.b\L 8.dd\	.	8.dd\	mu-
16G#X|>\ 16B\	.	.	.	.
16B|>\JJ 16d\	.	.	.	.
16r	16b\Jk 16ee\	.	16ee\	-ża
=4	=4	=4	=4	=4
!LO:TX:t=P:problem=mixed beam	!	!	!LO:TUP:a:problem=klamra łukowa	!
16AA/LL	(24cc\LL	.	24cc\LL	ko-
.	24b\	.	24b\	.
16A\ 16c\	.	.	.	.
.	24a/JJ)	.	24a/JJ	.
!	!LO:TX:t=P:problem=mixed beam	!	!	!
16EE/	16.ee\^LL	.	16.ee\	-ma-
16B\JJ 16d\	.	.	.	.
.	32g#X/JJk	.	32g#X/	-ry
!LO:TX:t=P:problem=mixed beam	!	!	!	!
8A\L 8c\	8a/	.	8a/	zji-
!LO:TX:t=[segno]	!	!	!	!
8AA/J	16a/	.	16a/	-ły,
!	!LO:TX:t=[segno]	!	!LO:TX:t=[segno]	!
.	16r	.	16r	.
=5	=5	=5	=5	=5
16C\LL 16E\ 16A\	16f\LL 16a\	<	16a\	taj
16AA\	16g#X\ 16b\	.	16b\	szcze
16C\ 16E\ 16A\	16a\ 16cc\	.	16cc\	ka-
16AA\JJ	16b\JJ 16dd\	.	16dd\	-żut
!!LO:LB:g=original
=-	=-	=-	=-	=-
16C\LL 16E\ 16A\	8cc\L 8ee\	[	8ee\	lu-
16AA\	.	.	.	.
16C\ 16E\ 16A\	8cc\J 8ee\	.	8ee\	-de,
16AA\JJ	.	.	.	.
=6	=6	=6	=6	=6
16D\LL 16F\ 16A\	16dd|>\LL 16ff\	.	[16ff\	szo
16AA\	16dd\|>JJ 16ff\	.	16ff\]	ja
16D\ 16F\ 16A\	(32dd\LLL 32ff\	.	(32ff\LLL	ne
.	32cc\J) 32ee\	.	32ee\JJJ)	.
16AA\JJ	16cc|>\JJ 16ee\	.	16ee\	żu-
16C\LL 16E\ 16A\	8cc\L 8ee\	.	8ee\	-ru
16AA\	.	.	.	.
16C\ 16E\ 16A\	8cc\J 8ee\	.	8ee\	sia,
16AA\JJ	.	.	.	.
=7	=7	=7	=7	=7
!	!LO:TX:t=P:problem=nie wyświetla się zakodowane pf	!LO:DY:t=pf.	!	!
16D\LL 16F\ 16A\	16dd|>\LL 16ff\	pf	16ff\	szo
16AA\	16dd|>\JJ 16ff\	.	16ff\	ja
16D\ 16F\ 16A\	(32dd\^<LLL 32ff\	.	(32ff\LLL	ne
.	32cc\J) 32ee\	.	32ee\JJJ)	.
16AA\JJ	16cc\JJ 16ee\	.	16ee\	żu-
16C\LL 16E\ 16A\	8cc\L 8ee\	.	8ee\	-ru
16AA\	.	.	.	.
16C\ 16E\ 16A\	8cc\J 8ee\	.	8ee\	sia
16AA\JJ	.	.	.	.
!!LO:LB:g=original
=8	=8	=8	=8	=8
!LO:TX:t=P:problem=mixed beam	!	!	!	!
16AA/'>LL	8cc\^<L 8ee\	.	(8ee\	a
16A\'> 16c\	.	.	.	.
16c\'>JJ 16e\	(16cc\L 16ee\	.	16ee\	ja
16r	16dd\JJ) 16ff\	.	16ff\)	żu-
!LO:TX:t=P:problem=mixed beam	!	!	!	!
16EE/'>LL	8.b\L 8.dd\	.	(8.dd\	-ru
16G#X\'> 16B\	.	.	.	.
16B'>\JJ 16d\	.	.	.	.
16r	16b\Jk 16ee\	.	16ee\)	sia...
=9	=9	=9	=9	=9
8E\L 8A\ 8c\	16.cc\LL	.	16.cc\	pi-
.	32a/K	.	32a\	-du
8E\J 8A\ 8c\	16ee\	.	(16ee\	u-
.	16cc\JJ	.	16cc\)	-to-
4E\ 4G#X\ 4B\	(16b\LL	.	(16b\LL	-plu
.	16g#X/J)	.	16g#X/JJ)	.
.	8e/J	.	8e/	sia,
!!LO:PB:g=original
=10	=10	=10	=10	=10
!LO:TX:t=P:problem=mixed beam	!	!	!	!
16AA/'LL	8cc\L 8ee\	.	8ee\	a
16A\' 16c\	.	.	.	.
16c\'JJ 16e\	16cc\L 16ee\	.	16ee\	ja
16r	16dd\JJ 16ff\	.	16ff\	żu-
!LO:TX:t=P:problem=mixed beam	!	!	!	!
16EE/LL	8.b\^<L 8.dd\	.	8.dd\	-ru
16G#X\ 16B\	.	.	.	.
16B\JJ 16d\	.	.	.	.
16r	16b\Jk 16ee\	.	16ee\	sia
=11	=11	=11	=11	=11
!LO:TX:t=P:problem=mixed beam	!LO:TUP:a:problem=klamra łukowa	!	!LO:TUP:a:problem=klamra łukowa	!
16AA/LL	24cc\LL	.	24cc\LL	pi-
.	24b\	.	24b\	.
16A\ 16c\	.	.	.	.
.	24a/JJ	.	24a/JJ	-du
16EE/	16.ee\^<LL	.	16.ee\	u-
16B\JJ 16d\	.	.	.	.
.	32g#X\JJk	.	32g#X/	-to-
!LO:TX:t=P:problem=mixed beam	!	!	!	!
8AA/L	8a/L	.	8a/	-plu
!LO:TX:t=[segno]	!LO:TX:t=[segno]	!	!LO:TX:t=[segno]	!
8A\J 8c\	8a/J	.	8a/	sia.
!!LO:LB:g=original
==	==	==	==	==
*-	*-	*-	*-	*-
!!!system-decoration: s1,{(s2,s3)}
!!!RDF**kern: < = below
!!!RDF**kern: > = above
!!!RDF**kern: | = vertical stroke
!!!ENC: Marta Chmielewska
!!!END: 2021-11-11
!!!YEC: Copyright 2022 Narodowy Instytut Fryderyka Chopina (https://polishscores.org)
!!!YEM: License CC-BY-4.0 (https://creativecommons.org/licenses/by/4.0)
